【最終試煉】一變應萬變的響應式網頁設計/img/logo_w@svg.svg

<svg height="24" viewBox="0 0 120 24" width="120" xmlns="http://www.w3.org/2000/svg"><path d="m799.696 59.64c-1.44 3.264-3.864 6.888-6.024 9.048.984.552 2.736 1.704 3.552 2.376 2.04-2.496 4.68-6.552 6.432-10.152zm6.6 1.488c1.92 3.12 4.68 7.272 5.856 9.816l3.744-2.04c-1.392-2.544-4.344-6.528-6.216-9.408zm-1.176-6.792 2.928-1.08c-.528-1.296-1.632-3.312-2.4-4.776l-3.696 1.248c.672 1.44 1.56 3.312 2.016 4.608h-9.96v3.648h22.056v-3.648zm26.28 8.856v-1.656h3.696v1.656zm-3.312-1.656v1.656h-3.6c.072-.552.12-1.128.144-1.656zm1.512-8.952c-.264.48-.576.96-.864 1.392h-4.272c.384-.456.72-.912 1.056-1.392zm-4.944 4.416h3.432v1.632h-3.432zm10.44 1.632h-3.696v-1.632h3.696zm3.456-4.656h-6.024c.696-.96 1.344-1.944 1.848-2.784l-2.376-1.584-.552.144h-4.176c.12-.24.264-.504.384-.744l-3.72-.672c-1.08 2.376-3.024 5.016-6.024 6.984.792.528 1.944 1.752 2.472 2.568.312-.24.6-.456.888-.696v3.168c0 2.88-.288 6.312-3.768 8.616.696.48 1.992 1.776 2.472 2.448 2.016-1.344 3.192-3.24 3.864-5.256h11.256v1.296c0 .456-.192.6-.72.6s-2.592.024-4.104-.072c.504.864 1.128 2.376 1.296 3.336 2.376 0 4.08-.048 5.328-.576 1.224-.528 1.656-1.44 1.656-3.216zm15.36 1.152h-2.016v-2.112h2.016zm5.712 3.192v2.76c-.096.024-.216.048-.408.048h-1.344c-.6 0-.672-.072-.672-.96v-1.848zm-13.032 8.376v-3.048c.384.432.72.888.912 1.2 3.312-1.416 4.224-4.032 4.368-6.528h2.04v1.872c0 3.192.576 4.176 3.384 4.176h2.28.048v2.328zm2.184-8.376c-.12 1.32-.552 2.544-2.184 3.528v-3.528zm15.096-5.304v-3.36h-21.84v3.36h6.768v2.112h-5.592v16.056h3.384v-1.296h13.032v1.296h3.552v-16.056h-5.976v-2.112zm8.88.648c-.528.552-1.128 1.056-1.824 1.536-.408-.336-.96-.744-1.464-1.032.168-.168.336-.336.504-.504zm1.992-1.92-.504.12h-1.152v-.552h3.768v-1.992h-3.768v-.84h-2.904v3.168l-1.416-.264c-.696.96-1.848 2.016-3.408 2.808.552.36 1.368 1.224 1.752 1.8.24-.144.456-.288.672-.456.36.264.768.576 1.104.864-.96.456-1.968.84-2.952 1.104.552.504 1.296 1.464 1.656 2.088 3.696-1.224 7.296-3.432 9.048-6.84zm-3.12 9.6c.816-.36 1.608-.768 2.376-1.2v.888h5.952v-.816c.792.408 1.632.768 2.472 1.128zm11.832 5.472c-.264.24-.528.456-.792.672-.648-.24-1.32-.456-1.992-.672zm-9.936 1.248v-1.248h3.72l-.816.936.24.072zm0-3.408h7.248v.456h-7.248zm0-1.584h7.248v.408h-7.248zm1.632-3.624c.552-.336 1.08-.72 1.584-1.104.552.384 1.152.744 1.776 1.104zm7.92-7.944c-.336.432-.72.84-1.176 1.224-.912-.456-1.848-.864-2.688-1.224zm4.488 4.608c-.768-.624-1.848-1.32-3.024-1.992 1.104-1.152 1.968-2.568 2.544-4.248l-1.896-.768-.528.096h-7.176v2.304h1.56l-1.872 1.824c.696.312 1.416.648 2.16 1.032-.48.216-.984.408-1.488.552.168.168.336.384.528.6l-1.536-.792c-2.424 2.712-7.056 4.728-11.28 5.808.672.672 1.416 1.704 1.776 2.448.96-.312 1.92-.648 2.88-1.032v5.424c0 .936-.36 1.32-.792 1.536.384.456.864 1.656.984 2.328.648-.288 1.656-.48 7.44-1.032-.048-.504-.024-1.32.024-2.016 2.856.912 6.12 2.232 7.848 3.264l1.632-1.968c-.6-.336-1.368-.696-2.208-1.032.696-.504 1.416-1.032 2.112-1.56l-2.376-1.488c-.24.264-.504.552-.816.84v-4.248c.912.336 1.8.6 2.64.84.408-.72 1.272-1.872 1.896-2.448-3.408-.72-7.488-2.112-10.008-3.576.12-.144.264-.288.408-.432.216.336.408.648.528.912.96-.36 1.848-.792 2.688-1.296 1.32.792 2.472 1.584 3.24 2.256zm9.96 4.44v-.624h1.248v.576zm1.248-5.016v.552h-1.248v-.552zm-1.248 2.16h1.248v.624h-1.248zm3.768-2.16h.768v-2.088h-7.584v2.088h.672v5.112l-.984.024.168 2.328c1.344-.096 2.856-.192 4.44-.288v2.16l-1.032-1.944c-1.032.264-2.568.456-3.912.528.24-2.208.288-4.368.288-6.12v-4.704h17.952v-2.64h-8.784c-.312-.648-.768-1.344-1.224-1.896l-3 1.152c.168.24.336.48.48.744h-8.544v7.368c0 3.552-.096 8.64-1.656 12.072.696.312 2.088 1.32 2.64 1.896.96-1.992 1.488-4.632 1.8-7.248.144.432.264.912.312 1.248.36.024.768.024 1.176.024v.624h-1.104v1.776h1.104v.816l-1.8.096.216 2.088c1.488-.12 3.096-.264 4.776-.432l-.048-1.944-1.056.072v-.696h1.032v-1.776h-1.032v-.792c.504-.048.984-.12 1.416-.216v6.288h2.52v-1.416l1.632.744c.672-1.032.936-2.664 1.08-4.2l-2.136-.6c-.072.984-.264 1.992-.576 2.856zm7.632 3.144h.648v1.176h-.648zm-1.704 1.176h-.624v-1.176h.624zm-2.328 0h-.6v-1.176h.6zm6.864-3.72v-2.304h-3.456v-.864h-2.904v.864h-3.168v2.304h3.168v.696h-3.072v4.896h9.312v-4.896h-3.336v-.696zm-5.016 12.888c-.288 0-.336-.048-.336-.552v-1.944c.288.384.528.768.672 1.08l1.776-1.056c.264.552.528 1.152.744 1.752-.624-.168-1.416-.48-1.776-.792-.048 1.344-.144 1.512-.456 1.512zm5.64.384c-.168-1.152-.888-2.856-1.656-4.152l-1.968.696c-.288-.432-.72-.936-1.152-1.392h4.68v-2.256h-10.392v2.256h3.864l-.696.408c.288.264.576.576.84.912h-1.872v2.592c0 2.016.384 2.664 2.304 2.664h1.344c1.248 0 1.848-.48 2.136-2.184.144.48.24.912.288 1.296z" fill="#fff" fill-rule="evenodd" transform="translate(-793 -48)"/></svg>

<?xml version="1.0" encoding="UTF-8"?>
<svg width="120px" height="24px" viewBox="0 0 120 24" version="1.1" xmlns="http://www.w3.org/2000/svg" xmlns:xlink="http://www.w3.org/1999/xlink">
    <!-- Generator: Sketch 40.3 (33839) - http://www.bohemiancoding.com/sketch -->
    <title>logo_w</title>
    <desc>Created with Sketch.</desc>
    <defs></defs>
    <g id="Welcome" stroke="none" stroke-width="1" fill="none" fill-rule="evenodd">
        <g id="Artboard" transform="translate(-793.000000, -48.000000)" fill="#FFFFFF">
            <path d="M799.696,59.64 C798.256,62.904 795.832,66.528 793.672,68.688 C794.656,69.24 796.408,70.392 797.224,71.064 C799.264,68.568 801.904,64.512 803.656,60.912 L799.696,59.64 Z M806.296,61.128 C808.216,64.248 810.976,68.4 812.152,70.944 L815.896,68.904 C814.504,66.36 811.552,62.376 809.68,59.496 L806.296,61.128 Z M805.12,54.336 L808.048,53.256 C807.52,51.96 806.416,49.944 805.648,48.48 L801.952,49.728 C802.624,51.168 803.512,53.04 803.968,54.336 L794.008,54.336 L794.008,57.984 L816.064,57.984 L816.064,54.336 L805.12,54.336 Z M831.4,63.192 L831.4,61.536 L835.096,61.536 L835.096,63.192 L831.4,63.192 Z M828.088,61.536 L828.088,63.192 L824.488,63.192 C824.56,62.64 824.608,62.064 824.632,61.536 L828.088,61.536 Z M829.6,52.584 C829.336,53.064 829.024,53.544 828.736,53.976 L824.464,53.976 C824.848,53.52 825.184,53.064 825.52,52.584 L829.6,52.584 Z M824.656,57 L828.088,57 L828.088,58.632 L824.656,58.632 L824.656,57 Z M835.096,58.632 L831.4,58.632 L831.4,57 L835.096,57 L835.096,58.632 Z M838.552,53.976 L832.528,53.976 C833.224,53.016 833.872,52.032 834.376,51.192 L832,49.608 L831.448,49.752 L827.272,49.752 C827.392,49.512 827.536,49.248 827.656,49.008 L823.936,48.336 C822.856,50.712 820.912,53.352 817.912,55.32 C818.704,55.848 819.856,57.072 820.384,57.888 C820.696,57.648 820.984,57.432 821.272,57.192 L821.272,60.36 C821.272,63.24 820.984,66.672 817.504,68.976 C818.2,69.456 819.496,70.752 819.976,71.424 C821.992,70.08 823.168,68.184 823.84,66.168 L835.096,66.168 L835.096,67.464 C835.096,67.92 834.904,68.064 834.376,68.064 C833.848,68.064 831.784,68.088 830.272,67.992 C830.776,68.856 831.4,70.368 831.568,71.328 C833.944,71.328 835.648,71.28 836.896,70.752 C838.12,70.224 838.552,69.312 838.552,67.536 L838.552,53.976 Z M853.912,55.128 L851.896,55.128 L851.896,53.016 L853.912,53.016 L853.912,55.128 Z M859.624,58.32 L859.624,61.08 C859.528,61.104 859.408,61.128 859.216,61.128 L857.872,61.128 C857.272,61.128 857.2,61.056 857.2,60.168 L857.2,58.32 L859.624,58.32 Z M846.592,66.696 L846.592,63.648 C846.976,64.08 847.312,64.536 847.504,64.848 C850.816,63.432 851.728,60.816 851.872,58.32 L853.912,58.32 L853.912,60.192 C853.912,63.384 854.488,64.368 857.296,64.368 L859.576,64.368 L859.624,64.368 L859.624,66.696 L846.592,66.696 Z M848.776,58.32 C848.656,59.64 848.224,60.864 846.592,61.848 L846.592,58.32 L848.776,58.32 Z M863.872,53.016 L863.872,49.656 L842.032,49.656 L842.032,53.016 L848.8,53.016 L848.8,55.128 L843.208,55.128 L843.208,71.184 L846.592,71.184 L846.592,69.888 L859.624,69.888 L859.624,71.184 L863.176,71.184 L863.176,55.128 L857.2,55.128 L857.2,53.016 L863.872,53.016 Z M872.752,53.664 C872.224,54.216 871.624,54.72 870.928,55.2 C870.52,54.864 869.968,54.456 869.464,54.168 C869.632,54 869.8,53.832 869.968,53.664 L872.752,53.664 Z M874.744,51.744 L874.24,51.864 L873.088,51.864 L873.088,51.312 L876.856,51.312 L876.856,49.32 L873.088,49.32 L873.088,48.48 L870.184,48.48 L870.184,51.648 L868.768,51.384 C868.072,52.344 866.92,53.4 865.36,54.192 C865.912,54.552 866.728,55.416 867.112,55.992 C867.352,55.848 867.568,55.704 867.784,55.536 C868.144,55.8 868.552,56.112 868.888,56.4 C867.928,56.856 866.92,57.24 865.936,57.504 C866.488,58.008 867.232,58.968 867.592,59.592 C871.288,58.368 874.888,56.16 876.64,52.752 L874.744,51.744 Z M871.624,61.344 C872.44,60.984 873.232,60.576 874,60.144 L874,61.032 L879.952,61.032 L879.952,60.216 C880.744,60.624 881.584,60.984 882.424,61.344 L871.624,61.344 Z M883.456,66.816 C883.192,67.056 882.928,67.272 882.664,67.488 C882.016,67.248 881.344,67.032 880.672,66.816 L883.456,66.816 Z M873.52,68.064 L873.52,66.816 L877.24,66.816 L876.424,67.752 L876.664,67.824 L873.52,68.064 Z M873.52,64.656 L880.768,64.656 L880.768,65.112 L873.52,65.112 L873.52,64.656 Z M873.52,63.072 L880.768,63.072 L880.768,63.48 L873.52,63.48 L873.52,63.072 Z M875.152,59.448 C875.704,59.112 876.232,58.728 876.736,58.344 C877.288,58.728 877.888,59.088 878.512,59.448 L875.152,59.448 Z M883.072,51.504 C882.736,51.936 882.352,52.344 881.896,52.728 C880.984,52.272 880.048,51.864 879.208,51.504 L883.072,51.504 Z M887.56,56.112 C886.792,55.488 885.712,54.792 884.536,54.12 C885.64,52.968 886.504,51.552 887.08,49.872 L885.184,49.104 L884.656,49.2 L877.48,49.2 L877.48,51.504 L879.04,51.504 L877.168,53.328 C877.864,53.64 878.584,53.976 879.328,54.36 C878.848,54.576 878.344,54.768 877.84,54.912 C878.008,55.08 878.176,55.296 878.368,55.512 L876.832,54.72 C874.408,57.432 869.776,59.448 865.552,60.528 C866.224,61.2 866.968,62.232 867.328,62.976 C868.288,62.664 869.248,62.328 870.208,61.944 L870.208,67.368 C870.208,68.304 869.848,68.688 869.416,68.904 C869.8,69.36 870.28,70.56 870.4,71.232 C871.048,70.944 872.056,70.752 877.84,70.2 C877.792,69.696 877.816,68.88 877.864,68.184 C880.72,69.096 883.984,70.416 885.712,71.448 L887.344,69.48 C886.744,69.144 885.976,68.784 885.136,68.448 C885.832,67.944 886.552,67.416 887.248,66.888 L884.872,65.4 C884.632,65.664 884.368,65.952 884.056,66.24 L884.056,61.992 C884.968,62.328 885.856,62.592 886.696,62.832 C887.104,62.112 887.968,60.96 888.592,60.384 C885.184,59.664 881.104,58.272 878.584,56.808 C878.704,56.664 878.848,56.52 878.992,56.376 C879.208,56.712 879.4,57.024 879.52,57.288 C880.48,56.928 881.368,56.496 882.208,55.992 C883.528,56.784 884.68,57.576 885.448,58.248 L887.56,56.112 Z M897.52,60.552 L897.52,59.928 L898.768,59.928 L898.768,60.504 L897.52,60.552 Z M898.768,55.536 L898.768,56.088 L897.52,56.088 L897.52,55.536 L898.768,55.536 Z M897.52,57.696 L898.768,57.696 L898.768,58.32 L897.52,58.32 L897.52,57.696 Z M901.288,55.536 L902.056,55.536 L902.056,53.448 L894.472,53.448 L894.472,55.536 L895.144,55.536 L895.144,60.648 L894.16,60.672 L894.328,63 C895.672,62.904 897.184,62.808 898.768,62.712 L898.768,64.872 L897.736,62.928 C896.704,63.192 895.168,63.384 893.824,63.456 C894.064,61.248 894.112,59.088 894.112,57.336 L894.112,52.632 L912.064,52.632 L912.064,49.992 L903.28,49.992 C902.968,49.344 902.512,48.648 902.056,48.096 L899.056,49.248 C899.224,49.488 899.392,49.728 899.536,49.992 L890.992,49.992 L890.992,57.36 C890.992,60.912 890.896,66 889.336,69.432 C890.032,69.744 891.424,70.752 891.976,71.328 C892.936,69.336 893.464,66.696 893.776,64.08 C893.92,64.512 894.04,64.992 894.088,65.328 C894.448,65.352 894.856,65.352 895.264,65.352 L895.264,65.976 L894.16,65.976 L894.16,67.752 L895.264,67.752 L895.264,68.568 L893.464,68.664 L893.68,70.752 C895.168,70.632 896.776,70.488 898.456,70.32 L898.408,68.376 L897.352,68.448 L897.352,67.752 L898.384,67.752 L898.384,65.976 L897.352,65.976 L897.352,65.184 C897.856,65.136 898.336,65.064 898.768,64.968 L898.768,71.256 L901.288,71.256 L901.288,69.84 L902.92,70.584 C903.592,69.552 903.856,67.92 904,66.384 L901.864,65.784 C901.792,66.768 901.6,67.776 901.288,68.64 L901.288,55.536 Z M908.92,58.68 L909.568,58.68 L909.568,59.856 L908.92,59.856 L908.92,58.68 Z M907.216,59.856 L906.592,59.856 L906.592,58.68 L907.216,58.68 L907.216,59.856 Z M904.888,59.856 L904.288,59.856 L904.288,58.68 L904.888,58.68 L904.888,59.856 Z M911.752,56.136 L911.752,53.832 L908.296,53.832 L908.296,52.968 L905.392,52.968 L905.392,53.832 L902.224,53.832 L902.224,56.136 L905.392,56.136 L905.392,56.832 L902.32,56.832 L902.32,61.728 L911.632,61.728 L911.632,56.832 L908.296,56.832 L908.296,56.136 L911.752,56.136 Z M906.736,69.024 C906.448,69.024 906.4,68.976 906.4,68.472 L906.4,66.528 C906.688,66.912 906.928,67.296 907.072,67.608 L908.848,66.552 C909.112,67.104 909.376,67.704 909.592,68.304 C908.968,68.136 908.176,67.824 907.816,67.512 C907.768,68.856 907.672,69.024 907.36,69.024 L906.736,69.024 Z M912.376,69.408 C912.208,68.256 911.488,66.552 910.72,65.256 L908.752,65.952 C908.464,65.52 908.032,65.016 907.6,64.56 L912.28,64.56 L912.28,62.304 L901.888,62.304 L901.888,64.56 L905.752,64.56 L905.056,64.968 C905.344,65.232 905.632,65.544 905.896,65.88 L904.024,65.88 L904.024,68.472 C904.024,70.488 904.408,71.136 906.328,71.136 L907.672,71.136 C908.92,71.136 909.52,70.656 909.808,68.952 C909.952,69.432 910.048,69.864 910.096,70.248 L912.376,69.408 Z" id="logo_w"></path>
        </g>
    </g>
</svg>
